!!!!SEGMENT: pl-kk--kk-i-636--002-007_anonim--in-parasceve-responsorium-4tum.krn
!!!cenid: 18xx:4541
!!!COM: Anonim
!!!COM-rismID: pe30004985
!!!CDT:
!!!CNT:
!!!OPR: In Parasceve
!!!OTL: Responsorium 4tum
!!!OMV: 007
!!!PDT:
!!!AGN: Sacred
!!!YEC: Copyright 2022 Narodowy Instytut Fryderyka Chopina (https://polishscores.org)
!!!YEM: License CC-BY-4.0 (https://creativecommons.org/licenses/by/4.0)
!!!SMS-siglum: PL-Kk
!!!SMS-shelfmark: Kk.I.636
!!!SMS-variant:
!!!SMS-altvar:
!!!SMS-shelfwork: 002-007 M
!!!NIFC-rismSourceID: 1001216440
!!!NIFC-rismChildID: 1001216919
!!!NIFC-islandoraID: pl-kk:40786
!!!URL-pdf-islandora: https://repozytorium.nifc.pl/islandora/object/pl-kk%3A40786/datastream/PDF/view
!!!URL-scan: https://polish.musicsources.pl/pl/lokalizacje/galeria/rekopisy/7271/1 @EN{Scan on Polish Music Sources Website} @PL{Skany w portalu Dziedzictwo Muzyki Polskiej w otwartym dostępie}
!!!IIIF:
!!!ONB-nifc: UWAGA: Lamentacje i Responsoria In Parasceve na skanach: S – 8-14, A – 31-37,T – 53-60, B – 78-86. Każda Lamentacja i Responsorium to oddzielne pliki.
!!!AIN: 1 alto 1 bass 1 soprn 1 tenor
!!!key: E-
**kern	**text	**kern	**text	**kern	**text	**kern	**text
*part4	*part4	*part3	*part3	*part2	*part2	*part1	*part1
*staff4	*staff4	*staff3	*staff3	*staff2	*staff2	*staff1	*staff1
*ICvox	*	*ICvox	*	*ICvox	*	*ICvox	*
*Ibass	*	*Itenor	*	*Ialto	*	*Isoprn	*
*I"Basso.	*	*I"Tenore.	*	*I"Alto.	*	*I"Soprano.	*
*I'B	*	*I'T	*	*I'A	*	*I'S	*
*clefF4	*	*clefC4	*	*clefC3	*	*clefC1	*
*k[b-e-a-]	*	*k[b-e-a-]	*	*k[b-e-a-]	*	*k[b-e-a-]	*
*E-:	*	*E-:	*	*E-:	*	*E-:	*
*M4/4	*	*M4/4	*	*M4/4	*	*M4/4	*
*met(c|)	*	*met(c|)	*	*met(c)	*	*met(c)	*
*all\right	*	*all\right	*	*all\right	*	*all\right	*
=1	=1	=1	=1	=1	=1	=1	=1
*2\right	*	*2\right	*	*2\right	*	*2\right	*
!!LO:TX:t=P:problem:all\right
!LO:TX:t=P:problem:kolejność znaków: BB- E- A-, A- zamiast AA-	!	!	!	!	!	!	!
4E-\	Tan-	2B-\	Tan-	4g\	Tan-	4ee-\	Tan-
2E-\	-quam,	.	.	2g\	-quam,	2ee-\	-quam
.	.	4B-\	-quam,	.	.	.	.
4r	.	4r	.	4r	.	4r	.
!LO:LB:g=original	!	!	!	!	!	!	!
=2	=2	=2	=2	=2	=2	=2	=2
2.E-\	tan-	2.G/	tan-	2.e-\	tan-	2.b-\	tan-
4E-\	-quam	4G/	-quam	4e-\	-quam	4b-\	-quam
!	!	!LO:LB:g=original	!	!LO:LB:g=original	!	!LO:LB:g=original	!
=3	=3	=3	=3	=3	=3	=3	=3
2E-\	ad	2A-\	ad	2e-\	ad	2cc\	ad
2E-\	la-	2c\	la-	2e-\	la-	2a-\	la-
=4	=4	=4	=4	=4	=4	=4	=4
1E-	-tro-	1B-	-tro-	1d	-tro-	2a-\	-tro-
.	.	.	.	.	.	4g\	.
.	.	.	.	.	.	4f\	.
=5	=5	=5	=5	=5	=5	=5	=5
2E-\	-nem	2B-\	-nem,	2e-\	-nem	2g\	-nem
2E-\	e-	2r	.	2r	.	2r	.
=6	=6	=6	=6	=6	=6	=6	=6
!	!	!LO:TX:a:t=2.:mod=	!	!LO:TX:a:t=1:mod=	!	!LO:TX:a:t=1:mod=	!
2D/	.	0r	.	1r	.	1r	.
2C/	-xi-	.	.	.	.	.	.
=7	=7	=7	=7	=7	=7	=7	=7
1BB-	-is-	.	.	2r	.	2r	.
.	.	.	.	2e-\	e-	2g\	e-
!LO:LB:g=original	!	!	!	!	!	!	!
=8	=8	=8	=8	=8	=8	=8	=8
[1BB-	-tis	2r	.	2d\	.	2f\	.
.	.	2B-\	e-	2e-\	.	2g\	.
!	!	!	!	!LO:LB:g=original	!	!LO:LB:g=original	!
=9	=9	=9	=9	=9	=9	=9	=9
2BB-/]	.	4B-/	.	2.d\	.	4a-\	.
.	.	4A-/	.	.	.	4cc\	.
2BB-/	cum	4G/	.	.	.	4b-\	.
.	.	4F/	-xi-	4d\	-xi-	4a-\	-xi-
=10	=10	=10	=10	=10	=10	=10	=10
4E-\	gla-	2F/	-i-	2d\	-is-	2a-\	-is-
4E-\	-di-	.	.	.	.	.	.
4E-\	-is	4E-/	-stis,	4e-\	-tis	4g\	-tis
4E-\	et	4B-\	cum	4e-\	cum	4g\	cum
!	!	!LO:LB:g=original	!	!	!	!	!
=11	=11	=11	=11	=11	=11	=11	=11
4.D\	fus-	4.B-\	gla-	4.f\	gla-	4.b-\	gla-
8D\	-ti-	8B-\	-di-	8f\	-di-	8b-\	-di-
4D\	-bus	4B-\	-is	4f\	-is	4b-\	-is
8D\	com-	8B-\	com-	8f\	com-	8b-\	com-
8D\	-pre-	8B-\	-pre-	8f\	-pre-	8b-\	-pre-
!LO:LB:g=original	!	!	!	!	!	!LO:LB:g=original	!
=12	=12	=12	=12	=12	=12	=12	=12
4.C/	-hen-	4.c\	-hen-	4.e-\	-hen-	4.ee-\	-hen-
8C/	-de-	8c\	-de-	8g\	-de-	8ee-\	-de-
4C/	-re	4c\	-re	4g\	-re	2ee-\	-re
4F\	.	4An\	.	4f\	.	.	.
!	!	!	!	!LO:LB:g=original	!	!	!
=13	=13	=13	=13	=13	=13	=13	=13
4BB-/	me,	4B-\	me,	4f\	me,	4dd\	me,
2.B-\	quo-	4r	.	4r	.	4r	.
.	.	4r	.	4r	.	4r	.
.	.	4d\	quo-	4f\	quo-	4b-\	quo-
=14	=14	=14	=14	=14	=14	=14	=14
4.B-\	-ti-	4.en\	-fi-	4.g\	-ti-	4.cc\	-ti-
8B-\	-di-	8e\	-di-	8g\	-di-	8cc\	-di-
4B-\	-e	4f\	-e	4a-\	-e	4cc\	-e
4B-\	a-	4e-X\	a-	4g\	a-	[4cc\	a-
!	!	!LO:LB:g=original	!	!	!	!	!
=15	=15	=15	=15	=15	=15	=15	=15
2B-\	-pud	2d\	-pud	2f\	-pud	4cc\]	.
.	.	.	.	.	.	4b-\	-pud
(4B-\	vos	4d\	vos	4f\	vos	4b-\	vos
4A-\)	.	4B-\	e-	4f\	e-	4dd\	e-
!LO:LB:g=original	!	!	!	!	!	!LO:LB:g=original	!
=16	=16	=16	=16	=16	=16	=16	=16
2G\	e-	2B-\	-ram	2.e-\	-ram	2.ee-\	-ram
4G\	-ram	2B-\	in	.	.	.	.
4G\	in	.	.	4e-\	in	4ee-\	in
!	!	!	!	!LO:LB:g=original	!	!	!
=17	=17	=17	=17	=17	=17	=17	=17
2.A-\	tem-	2.c\	Tem-	2e-\	Tem-	2cc\	tem-
.	.	.	.	2f\	-plo	2a-\	-plo
4A-\	-plo	4c\	-plo	.	.	.	.
=18	=18	=18	=18	=18	=18	=18	=18
2B-\	do-	2B-\	do-	2.e-\	do-	2g/	do-
2BB-/	.	2A-\	.	.	.	2f/	.
.	.	.	.	4d\	.	.	.
=19	=19	=19	=19	=19	=19	=19	=19
2.E-\	-cens,	2.G/	-cens,	2.e-\	-cens,	2.e-/	-cens,
4r	.	4r	.	4r	.	4r	.
=20	=20	=20	=20	=20	=20	=20	=20
2.D\	et,	2r	.	2.f\	et,	2.b-\	et,
.	.	[2B-\	et	.	.	.	.
4r	.	.	.	4r	.	4r	.
!LO:TX:b:rj:t=Volti Subitto&colon;:mod=	!	!	!	!	!	!	!
!LO:PB:g=original	!	!LO:LB:g=original	!	!	!	!LO:LB:g=original	!
=21	=21	=21	=21	=21	=21	=21	=21
2r	.	2B-\]	.	2r	.	2r	.
2D\	et	2B-\	et	2f\	et,	2b-\	et
!	!	!	!	!LO:LB:g=original	!	!	!
=22	=22	=22	=22	=22	=22	=22	=22
2C/	non	2c\	non	2e-\	non	2ee-\	non
4C/	me	4c\	me	4e-\	me	4g\	me
4r	.	4r	.	4r	.	4r	.
=23	=23	=23	=23	=23	=23	=23	=23
2.F\	te-	4r	.	4r	.	4r	.
.	.	2c\	te-	2e-\	te-	2an\	te-
4F\	-nu-	4c\	-nu-	4e-\	-nu-	4a\	-nu-
=24	=24	=24	=24	=24	=24	=24	=24
2G\	-is-	2.B-\	-is-	2.d\	-is-	2b-\	-is-
2F\	-tis,	.	.	.	.	2a-X\	-tis
.	.	4B-\	-stis,	4d\	-tis,	.	.
!	!	!	!	!	!	!LO:LB:g=original	!
=25	=25	=25	=25	=25	=25	=25	=25
2E-\	et	2B-\	et	2e-\	et	2g\	et
4D-X\	ec-	4B-\	ec-	4e-\	ec-	4g\	ec-
4D-\	-ce	4B-\	-ce	4e-\	-ce	4g\	-ce
!LO:LB:g=original	!	!LO:LB:g=original	!	!	!	!	!
=26	=26	=26	=26	=26	=26	=26	=26
2C/	fla-	2.A-\	fla-	2e-\	fla-	2a-X\	fla-
2AA-/	-gel-	.	.	2e-\	-gel-	2cc\	-gel-
.	.	4A-\	-gel-	.	.	.	.
!	!	!	!	!LO:LB:g=original	!	!	!
=27	=27	=27	=27	=27	=27	=27	=27
2BB-/	-la-	2G/	-la-	2e-\	-la-	2b-\	-la-
4BB-/	-tum	4F/	-tum	4d\	-tum,	4b-\	-tum
4B-\	du-	4r	.	4r	.	4r	.
=28	=28	=28	=28	=28	=28	=28	=28
!	!	!	!	!LO:TX:a:t=1:mod=	!	!LO:TX:a:t=2.:mod=	!
4.B-\	-ci-	2r	.	1r	.	0r	.
8B-\	-tis	.	.	.	.	.	.
4c\	ad	4r	.	.	.	.	.
4B-\	.	4B-\	ad	.	.	.	.
=29	=29	=29	=29	=29	=29	=29	=29
2G\	cru-	2e-\	cru-	2r	.	.	.
4A-\	-ci-	4f\	-ci-	4r	.	.	.
4G\	-fi-	4e-\	-fi-	4e-\	cru-	.	.
!LO:LB:g=original	!	!	!	!	!	!	!
=30	=30	=30	=30	=30	=30	=30	=30
2.F\	-gen-	2d\	-gen-	4.a-\	-ci-	2r	.
.	.	.	.	8a-\	-fi-	.	.
.	.	4d\	-dum,	4b-\	-gen-	4r	.
4F\	-dum	4B-\	ad	4a-\	-dum	4b-\	ad
!	!	!LO:LB:g=original	!	!LO:LB:g=original	!	!LO:LB:g=original	!
=31	=31	=31	=31	=31	=31	=31	=31
4E-\	ad	2B-\	cru-	2g\	cru-	2ee-\	cru-
4E-\	cru-	.	.	.	.	.	.
4D\	-ci-	4B-\	-ci-	4a-\	-ci-	4ff\	-ci-
4E-\	-fi-	4B-\	-fi-	4g\	-fi-	4ee-\	-fi-
=32	=32	=32	=32	=32	=32	=32	=32
1F	-gen-	1B-	-gen-	1a-	-gen-	2ee-\	-gen-
.	.	.	.	.	.	2dd\	.
=33	=33	=33	=33	=33	=33	=33	=33
4G\	-dum,	4B-\	-dum	4g\	-dum	4ee-\	-dum
4r	.	4r	.	4b-\	du-	4r	.
4r	.	4r	.	2b-\	-ci-	4r	.
4G\	du-	4B-\	du-	.	.	4ee-\	du-
!LO:LB:g=original	!	!	!	!	!	!	!
=34	=34	=34	=34	=34	=34	=34	=34
4A-\	-ci-	4c\	-ci-	2a-\	-tis,	4ee-\	-ci-
4A-\	-tis	4c\	-tis	.	.	4ee-\	-tis,
2A-\	ad	4r	.	4r	.	4r	.
.	.	4c\	ad	4a-\	ad	4ee-\	ad
!	!	!	!	!LO:LB:g=original	!	!LO:PB:g=original	!
=35	=35	=35	=35	=35	=35	=35	=35
2An\	cru-	2c\	cru-	2f\	cru-	2ee-\	cru-
4A\	-ci-	4c\	-ci-	4f\	-ci-	4ff\	-ci-
4A\	-fi-	4c\	-fi-	4f\	-fi-	4ee-\	-fi-
!	!	!LO:LB:g=original	!	!	!	!	!
=36	=36	=36	=36	=36	=36	=36	=36
2B-\	-gen-	2c\	-gen-	2f\	-gen-	2ee-\	-gen-
4BB-/	-dum,	4B-\	-dum,	4f\	-dum,	4dd\	-dum,
4r	.	4r	.	4r	.	4r	.
=37	=37	=37	=37	=37	=37	=37	=37
2.BB-/	et	2.d\	et	2.f\	et	2.b-\	et
4r	.	4r	.	4r	.	4r	.
!LO:LB:g=original	!	!	!	!	!	!	!
=38	=38	=38	=38	=38	=38	=38	=38
2.B-\	cum-	2.B-\	cum-	2.f\	cum-	2.dd\	cum-
4B-\	-que	4B-\	-que	4f\	-que	4dd\	-que
!	!	!	!	!	!	!LO:LB:g=original	!
=39	=39	=39	=39	=39	=39	=39	=39
4An\	in-	4c\	in-	4f\	in-	4ee-\	in-
4A\	-je-	4c\	-je-	4f\	-je-	4ee-\	-ie-
4A\	-cis-	4c\	-cis-	4f\	-cis-	4ee-\	-cis-
4A\	-sent	4c\	-sent	4f\	-sent	4ee-\	-sent
!	!	!	!	!LO:LB:g=original	!	!	!
=40	=40	=40	=40	=40	=40	=40	=40
2An\	ma-	2.c\	ma-	2f\	ma-	2.ff\	ma-
2A\	-nus	.	.	2f\	-nus	.	.
.	.	4c\	-nus,	.	.	4ee-\	-nus
!	!	!LO:LB:g=original	!	!	!	!	!
=41	=41	=41	=41	=41	=41	=41	=41
2B-\	ma-	2B-\	ma-	2f\	ma-	2dd\	ma-
4B-\	-nus	4B-\	-nus	4f\	-nus	4dd\	-nus
4A-X\	in	4B-\	in	4f\	in	4dd\	in
!LO:LB:g=original	!	!	!	!	!	!	!
=42	=42	=42	=42	=42	=42	=42	=42
2G\	Je-	2B-\	Je-	2e-\	Je-	2ee-\	Je-
2D\	-sum	2B-\	-sum	2f\	-sum,	2b-\	-sum
!	!	!	!	!	!	!LO:LB:g=original	!
=43	=43	=43	=43	=43	=43	=43	=43
2E-\	et	2B-\	et	2e-\	et	2g\	et
4G\	te-	4B-\	te-	4e-\	te-	4b-\	te-
4A-\	-nu-	4B-\	-nu-	4f\	-nu-	4dd\	-nu-
!	!	!	!	!LO:LB:g=original	!	!	!
=44	=44	=44	=44	=44	=44	=44	=44
2G\	-is-	2.B-\	-is-	2e-\	-is-	2ee-\	-is-
2D\	-sent	.	.	2f\	-sent	2b-\	-sent
.	.	4B-\	-sent	.	.	.	.
=45	=45	=45	=45	=45	=45	=45	=45
2E-\	e-	4B-\	e-	4e-\	e-	4g\	e-
.	.	4B-\	-um,	4e-\	-um,	4g\	-um,
2E-\	-um,	2r	.	2r	.	2r	.
!	!	!LO:LB:g=original	!	!	!	!	!
=46	=46	=46	=46	=46	=46	=46	=46
2.D-X\	di-	2r	.	2r	.	2r	.
.	.	[2B-\	di-	2e-\	di-	2g\	di-
4D-\	-xit	.	.	.	.	.	.
!LO:LB:g=original	!	!	!	!	!	!	!
=47	=47	=47	=47	=47	=47	=47	=47
2C/	di-	2.B-\]	.	2.en\	.	2.g\	.
2C/	-xit	.	.	.	.	.	.
.	.	4B-\	-xit	4e\	-xit,	4g\	-xit
!	!	!	!	!	!	!LO:LB:g=original	!
=48	=48	=48	=48	=48	=48	=48	=48
2F\	di-	2A-\	di-	2f\	di-	2a-\	di-
2AA-/	-xit	2c\	-xit	2f\	-xit	2a-\	-xit
!	!	!	!	!LO:LB:g=original	!	!	!
=49	=49	=49	=49	=49	=49	=49	=49
2BB-/	ad	2.B-\	ad	2.e-X\	ad	2g/	ad
2BB-/	e-	.	.	.	.	2f/	e-
.	.	4B-\	e-	4d\	e-	.	.
=50	=50	=50	=50	=50	=50	=50	=50
2E-\	-os,	4B-\	-os,	2e-\	-os,	2g\	-os,
.	.	4r	.	.	.	.	.
4r	.	2B-\	quo-	4r	.	4r	.
4A-\	quo-	.	.	4f\	quo-	4dd\	quo-
=51	=51	=51	=51	=51	=51	=51	=51
2G\	-ti-	2.B-\	-ti-	2e-\	-ti-	2ee-\	-ti-
2D\	-di-	.	.	2f\	-di-	2b-\	-di-
.	.	4B-\	-di-	.	.	.	.
!LO:LB:g=original	!	!LO:LB:g=original	!	!	!	!	!
=52	=52	=52	=52	=52	=52	=52	=52
2E-\	-e	2B-\	-e,	2e-\	-e	2g\	-e
4A-\	e-	4B-\	e-	4r	.	4dd\	e-
4A-\	-ram	4B-\	-ram	8f\	e-	4dd\	-ram
.	.	.	.	8f\	-ram	.	.
!	!	!	!	!LO:PB:g=original	!	!LO:LB:g=original	!
=53	=53	=53	=53	=53	=53	=53	=53
4G\	a-	4B-\	a-	4e-\	a-	4ee-\	a-
4G\	-pud	4B-\	-pud	4e-\	-pud	4ee-\	-pud
4D\	vos	4B-\	vos	4f\	vos	4b-\	vos
4D\	in	4B-\	in	4f\	in	4b-\	in
=54	=54	=54	=54	=54	=54	=54	=54
2E-\	Tem-	4B-\	Tem-	4e-\	tem-	4g\	tem-
.	.	4B-\	-plo,	4e-\	-plo,	4g\	-plo,
2E-\	-plo	2r	.	2r	.	2r	.
=55	=55	=55	=55	=55	=55	=55	=55
1C	et	2r	.	2r	.	2r	.
.	.	2B-\	et	2en\	et	2g\	et
=56	=56	=56	=56	=56	=56	=56	=56
2.F\	non	2A-\	non	2.f\	non	2.a-\	non
.	.	2c\	me	.	.	.	.
4E-\	me	.	.	4f\	me	4a-\	me
!LO:LB:g=original	!	!LO:LB:g=original	!	!	!	!	!
=57	=57	=57	=57	=57	=57	=57	=57
2D\	te-	2.B-\	te-	2f\	te-	2a-\	te-
2E-\	-nu-	.	.	2e-X\	-nu-	2g\	-nu-
.	.	4B-\	-nu-	.	.	.	.
!	!	!	!	!LO:LB:g=original	!	!LO:LB:g=original	!
=58	=58	=58	=58	=58	=58	=58	=58
2AA-/	-is-	2c\	-is-	2e-\	-is-	1f	-is-
2BB-/	.	4B-\	.	2d\	.	.	.
.	.	4A-\	.	.	.	.	.
=59	=59	=59	=59	=59	=59	=59	=59
2E-\	-tis,	2G/	-tis,	2e-\	-tis,	2e-/	-tis,
2E-\	et	2G/	et	2e-\	et	2ee-\	et
=60	=60	=60	=60	=60	=60	=60	=60
2E-\	non	2A-\	non	2e-\	non	2cc\	non
2E-\	me	2c\	me	2e-\	me	2a-\	me
=61	=61	=61	=61	=61	=61	=61	=61
2E-\	te-	2B-\	te-	2e-\	te-	2g\	te-
2E-\	-nu-	2d-X\	-nu-	2e-\	-nu-	2b-\	-nu-
!	!	!LO:LB:g=original	!	!	!	!	!
=62	=62	=62	=62	=62	=62	=62	=62
1E-	-is-	1c	-is-	1e-	-is-	1a-	-i-
=63	=63	=63	=63	=63	=63	=63	=63
1E-	.	2B-\	.	1e-	.	2g/	.
.	.	2A-\	.	.	.	2f/	.
=64	=64	=64	=64	=64	=64	=64	=64
1E-;	-tis.	1B-;	-tis.	1e-;	-tis	1g;	-stis.
==	==	==	==	==	==	==	==
*-	*-	*-	*-	*-	*-	*-	*-
!!!system-decoration: [(s1,s2,s3,s4)]
!!!RDF**kern: > = above
!!!RDF**kern: < = below
!!!RDF**kern: i = editorial accidental
!!!ENC: Berenika Jozajtis
!!!EED: Katarzyna Serwa
!!!END: 2023-11-16
!!!EEV: 2024-06-04
